X: 1539
T: Herb Henn's Waltz
B: australian traditional tunes wiki
M:3/4
L:1/8
R: Waltz
Q: 1/4=100
K:A
V:1 
E2|:"A"c4B2|A4E2|"E7"G4F2|"Bm"D6|"E"G4F2|(3EFE ^D2E2|"D"F4E2|"A"C6|
"A"c4B2|A4E2|"E7"G4F2|"Bm"D6|"E"G4F2|(3EFE ^D2E2|"D"F4G2|1"A"A4E2:|2"A"A6||
"A"C6|E6|"D"D4F2|"A"E6|C4E2|"E7"G4B2|"D"A2G2F2|"A"E6||
"D"D6|F6|"E7"G4F2|D6|"Bm"F4F2|"E"G4F2|"A"C6-|C6||
"A"C6|E6|"D"F4"A"C2| C6|"E7"B2c2B2|d2c3B|"D"F6-|F6|
A2A2A2|G4F2|"E"B3AF2|"A"E2^D2E2|"D"F6|"E"G6|"A"A6-|A6||
% abcbook-tune_id 6342d53a994487a9cec44623


% abcbook-boost 0
% abcbook-tablature 
% abcbook-transpose 
% abcbook-lastupdated 1665324370019
% abcbook-soundfonts 
% abcbook-repeats 1
% NFF Book 2009

